X:396
T:Mon Habit n'a qu'un Bouton
L:1/8
M:2/4
K:Em
E>F GA | BB -B/A/B/^c/ | d>^c BA | BB/A/ GF | 
E>F GA | BB -B/A/B/^c/ | d>^c BA | B4 :|| 
c>B AG | F>G Ac | B>A GF | E>F GB | 
c>B AG | F>G Ac |1 BA GA | B4 :|2 B>A GF | E4 || 

